assets/icons/mail.svg

<svg width="18" height="18" viewBox="0 0 18 18" fill="none" xmlns="http://www.w3.org/2000/svg">
<path d="M1.5 4.5L6.68476 7.43773C8.5962 8.52075 9.4038 8.52075 11.3152 7.43773L16.5 4.5" stroke="#7F7F7F" stroke-width="1.5" stroke-linejoin="round"/>
<path d="M1.51183 10.1067C1.56086 12.4059 1.58537 13.5554 2.43372 14.4071C3.28206 15.2586 4.46275 15.2882 6.82412 15.3476C8.27948 15.3842 9.72053 15.3842 11.1759 15.3476C13.5373 15.2882 14.7179 15.2586 15.5663 14.4071C16.4147 13.5554 16.4392 12.4059 16.4881 10.1067C16.504 9.36743 16.504 8.63258 16.4881 7.8933C16.4392 5.59415 16.4147 4.44457 15.5663 3.593C14.7179 2.74142 13.5373 2.71176 11.1759 2.65243C9.72053 2.61586 8.27947 2.61586 6.82411 2.65242C4.46275 2.71175 3.28206 2.74141 2.43371 3.59299C1.58537 4.44456 1.56085 5.59414 1.51182 7.8933C1.49605 8.63258 1.49606 9.36743 1.51183 10.1067Z" stroke="#7F7F7F" stroke-width="1.5" stroke-linejoin="round"/>
</svg>

<svg xmlns="http://www.w3.org/2000/svg" width="18" height="18" fill="none" viewBox="0 0 18 18"><path stroke="#7f7f7f" stroke-linejoin="round" stroke-width="1.5" d="m1.5 4.5 5.185 2.938c1.911 1.083 2.719 1.083 4.63 0L16.5 4.5"/><path stroke="#7f7f7f" stroke-linejoin="round" stroke-width="1.5" d="M1.512 10.107c.049 2.299.073 3.448.922 4.3.848.852 2.029.881 4.39.94 1.455.037 2.897.037 4.352 0 2.361-.059 3.542-.088 4.39-.94.849-.852.873-2.001.922-4.3a51 51 0 0 0 0-2.214c-.049-2.299-.073-3.448-.922-4.3-.848-.852-2.029-.881-4.39-.94a86 86 0 0 0-4.352 0c-2.361.059-3.542.088-4.39.94-.849.852-.873 2.001-.922 4.3-.016.74-.016 1.474 0 2.214Z"/></svg>
